X: 2
T: Hull's
R: reel
M: 4/4
L: 1/8
K: Dmaj
B|ADDB A3B|AD D2 BABd|AD D2 A2 FA|BABd edef|
ADDB A3B|AD D2 BABd|efed B2 ef|1dBBA BddB:|2dBBA Bdde||
|:fA A2 f2 ed|eB B2 e3f|eB B2 B2 AB|dA A2 ABde|
fA A2 f2 ed|eB B2 e3d|efed B2 ef|1dBBA Bdde:|2dBBA BddB||


Tune 2686	Setting 29084

